timer.svg

<svg fill="currentColor" viewBox="0 0 24 24"><path d="m19.03 7.39 1.42-1.42c-.45-.51-.9-.97-1.41-1.41L17.62 6c-1.55-1.26-3.5-2-5.62-2a9 9 0 0 0 0 18c5 0 9-4.03 9-9 0-2.12-.74-4.07-1.97-5.61M13 14h-2V7h2zm2-13H9v2h6z"/></svg>

<svg  viewBox="0 0 24 24" fill="currentColor"><path  d="M19.03 7.39L20.45 5.97C20 5.46 19.55 5 19.04 4.56L17.62 6C16.07 4.74 14.12 4 12 4C7.03 4 3 8.03 3 13S7.03 22 12 22C17 22 21 17.97 21 13C21 10.88 20.26 8.93 19.03 7.39M13 14H11V7H13V14M15 1H9V3H15V1Z"/></svg>
